X:1
T:Cinncinnat:i -- Hornpipe
R:hornpipe
B:Cole's 1000 Fiddle Tunes
Z:Bob Puckette <bpuckette:msn.com> 2003-3-8
M:2/4
L:1/16
K:D
vDAFA DAFA|dAfA eAfA|gAFa edcd|edcB AGFE|
DAFA DAFA|dAfA eAfA|gAfA edcB|cdeg fd d2:|
|:v.eAAA .fAAA|.gAAA .fAAA|eAfA gAfA|edcB AGFE|
.Dddd .ceee|.dfff .eggg|fgaf bgec|d2d2d2 z2:|
